X:1
T:James Gibb editions
T:The spacious firmament on high - Sheeles
%%score [ ( 1 2 ) ( 3 4 ) ]
L:1/8
Q:1/4=84
M:4/4
K:F
V:1 treble nm="Midi_74"
V:2 treble 
V:3 bass nm="Midi_74"
V:4 bass 
V:1
"^Joseph Addison\n(1672-1719)""^The spacious firmament on high""^John Sheeles\n(1688-1761)""^London (or Addison's) (D.L.M.)" F2 | %1
w: The|
w: Soon|
w: What|
 A2 A2 G2 c2 | BA GF G2 C2 | FG A2 G2 FE | F2 ED E2 G2 | A2 d2 G2 c2 | F2 GF E2 G2 | A2 =B2 c2 F2 | %8
w: spa- cious fir- ma-|ment * on * high, With|all * the blue e\- *|the- real * sky, And|span- gled heavens, a|shi- ning * frame, Their|great O- ri- gi-|
w: as the eve- ning|shades * pre\- * vail, The|moon * takes up the *|won- drous * tale, And|night- ly to the|listen- ing * earth Re-|peats the sto- ry|
w: though in so- lemn|si\- * lence * all Move|round * the dark ter\- *|res- trial * ball? What|though no re- al|voice nor * sound A-|midst their ra- diant|
 E2 D2 C2 C2 | G2 G2 E2 DC | F2 G2 A2 A2 | c2 c2 BA GF | B2 c2 d2 c2 | d2 cB c2 F2 | B2 AG A2 F2 | %15
w: nal pro- claim, Th'un-|wea- ried sun, from *|day to day, Does|his Cre- a\- * tor's *|power dis- play, And|pub- lish\- * es to|ev- ery * land The|
w: of her birth; While|all the stars that *|round her burn, And|all the pla\- * nets, *|in their turn, Con-|firm the * ti- dings,|as they * roll, And|
w: orbs be found? In|rea- son's ear they *|all re- joice, and|ut- ter forth * a *|glo- rious voice, For|e- ver * sing- ing|as they * shine, 'The|
 G2 F2 E2 F2 | B2 A2 G2 c2 | d2 c2 E2 FG | A2 GF F4 |] %19
w: work of an al-|migh- ty hand, The|work of an al\- *|migh- ty * hand.|
w: spread the truth from|pole to pole, And|spread the truth from *|pole to * pole.|
w: hand that made us|is di- vine,' 'The|hand that made us *|is di\- * vine.'|
V:2
 C2 | C2 F2 G2 E2 | F2 C=B, C2 C2 | C2 F2 C2 C2 | C2 =B,2 C2 G2 | F2 F2 C2 E2 | D2 D2 C2 C2 | %7
 F2 F2 C2 D2 | C2 =B,2 C2 C2 | C2 D2 C2 G,2 | C2 E2 F2 F2 | G2 E2 F2 C2 | F2 GA B2 F2 | %13
 F2 G2 E2 F2 | F2 E2 F2 C2 | C2 C2 C2 F2 | G2 F2 E2 F2 | F2 F2 E2 CD | C2 C2 A,4 |] %19
V:3
 A,2 | C2 C2 C2 C2 | C2 G,2 E,2 G,2 | A,2 A,=B, C2 G,2 | F,2 G,2 G,2 C2 | C2 B,A, G,2 A,G, | %6
 F,2 B,A, G,2 G,2 | C2 =B,A, G,2 A,2 | G,2 G,F, E,2 E,F, | G,2 G,2 G,2 E,2 | F,2 C2 C2 C2 | %11
 C2 C2 C2 A,2 | B,2 _E2 D2 A,2 | B,2 D2 C2 A,2 | B,2 C2 C2 A,2 | B,2 A,2 B,2 A,2 | C2 C2 C2 F,2 | %17
 F,2 F,2 B,2 F,2 | F,2 E,F, F,4 |] %19
V:4
 F,2 | F,2 F,2 E,2 C,2 | F,2 E,D, C,2 E,2 | F,2 D,2 E,2 C,2 | D,2 G,,2 C,2 E,2 | F,2 D,2 E,2 C,2 | %6
 D,2 B,,2 C,2 E,2 | F,2 D,2 E,2 F,2 | G,2 G,,2 C,2 C,D, | E,2 =B,,2 C,2 _B,,2 | A,,2 C,2 F,2 F,2 | %11
 E,2 C,2 F,2 _E,2 | D,2 C,2 B,,2 F,2 | B,2 G,2 A,2 D,2 | G,2 C,2 F,2 F,2 | E,2 F,2 C,2 D,2 | %16
 E,2 F,2 C,2 A,,2 | B,,2 A,,2 G,,2 A,,B,, | C,2 C,2 F,,4 |] %19

